!!!OTL@@DE: Gesang ausziehender Krieger
!!!COM: Methfessel, Albert
!!!OMD: Schrittm&auml;ssig und heiter
!!!LYR: Methfessel, Albert
!!!LDT: 1813
!!!OCL: Erk, Ludwig
!!!GCO: Deutscher Liederschatz, Band 1
**kern	**kern	**kern
*staff3	*staff2	*staff1
*Ipiano	*Ipiano	*Ivox
*>[A,B,B]	*>[A,B,B]	*>[A,B,B]
*>A	*>A	*>A
*clefF4	*clefG2	*clefG2
*k[b-e-]	*k[b-e-]	*k[b-e-]
*B-:	*B-:	*B-:
*M2/4	*M2/4	*M2/4
*MM104	*MM104	*MM104
8F\	8f/	8f/
=1	=1	=1
4B-\	4b-\	4b-\
8B-'\L	8b-'\L	8b-\
8d'\J	8dd'\J	8dd\
=2	=2	=2
4B-\	4b-\	4b-\
8B-'\L	8b-'/L	8b-\
8F'\J	8f'/J	8f/
=3	=3	=3
4BB-\ 4F\ 4B-\	8d/ 8b-/L	8b-\
.	8f/J	8f/
8B-'\ 8d'\L	8f'/ 8b-'/L	8b-\
8B-'\ 8f'\J	8b-'/ 8dd'/J	8dd\
=4	=4	=4
4B-\ 4d\	4f/ 4b-/	4b-\
8r	8r	8r
8B-\	8b-\ 8dd\	8dd\
=5	=5	=5
4F\ 4f\	4a\ 4cc\	4cc\
4B-\ 4f\	8b-'\ 8dd'\L	8dd\
.	8een'\J	8een\
=6	=6	=6
4.A\ 4.f\	4cc\ (4ff\	4ff\
.	8cc\L)	8cc\
8B-\ 8f\	8b-'\ 8dd'\J	8dd\
=7	=7	=7
4c\ 4f\	(8.a/ 8.cc/L	8.cc\
.	16g/) 16b-/Jk	16b-\
8C'\ 8c'\L	8f'/ 8a'/L	8a/
8C'\ 8B-'\J	8en'/ 8g'/J	8g/
=8	=8	=8
4F\ 4A\	4c/ 4f/	4f/
8r	8r	8r
=!|:	=!|:	=!|:
*>B	*>B	*>B
8r	8f/	8f/
=9	=9	=9
4FF/ 4F/	4f/ 4a/ 4cc/	4cc^\
4BB-\ 4F\	4f/ 4b-/ 4dd/	4dd\
=10	=10	=10
4.FF/ 4.F/	4.f/ 4.a/ 4.cc/	4.cc\
8r	8f/ 8a/ 8cc/	8cc\
=11	=11	=11
8BB-\ 8B-\L	(8.f/ 8.b-/ 8.dd/L	8.dd^\
8C\ 8c\	.	.
.	16cc/k)	16cc\
8D\ 8d\	8f'/ 8b-'/	8b-\
8BB-\ 8B-\J	8f'/ 8b-'/ 8dd'/J	8dd\
=12	=12	=12
4F\ 4c\	4f/ 4a/ 4cc/	4cc\
8r	8r	8r
8F\	8f/	8f/
=13	=13	=13
8BB-'\L	8d'/L	8d/
8D'\	8f'/	8f/
8F'\	8b-'/	8b-\
8B-'\J	8dd'/J	8dd\
=14	=14	=14
4D\ 4B-\	4a-\ 4b-\ 4ff\	4ff\
4E-\ 4B-\	4g\ 4b-\ 4ee-\	8.ee-\
.	.	16ee-\
=15	=15	=15
4F\ 4B-\	4f/ 4b-/ 4dd/	4dd\
4FF/ 4F/	4e-/ 4an/ 4cc/	4cc\
=16	=16	=16
4BB-\ 4F\	4d/ 4f/ 4b-/	4b-\
8r	8r	8r
==:|!	==:|!	==:|!
*-	*-	*-
!!!ENC: Craig Stuart Sapp
!!!END: 2004/06/27/
!!!EFL: 150/651
